X: 321
T: Hora Fetelor
Z: 2007 John Chambers <jc:trillian.mit.edu>
S: printed MS of unknown origin
M: 6/8
L: 1/16
K: Em
B,^C^D \
P:A
|:"Em"E3BGB E3BGB | E6 "E"^G6 \
| "Am"A3ece A3ece | A6- A3^de=f \
| "B7"^f3ee^d d3ccB | "Em"B2e2e2 "C"e3ddc 
| "G"B3AAG "D7"d3cdc | "G"B6- B3^de=f \
| "B7"^f3ee^d d3ccB | "Em"B2e2e2 "C"e3ddc \
| "Em"B3cAB "B7"G3AFG | "Em"E3BGB E6 :|
P:B
|: "G"B2g2g2 g3ffe | "D"d2f2f2 f6 \
| "C"c2e2e2 e3ddc | "G"B2d2d2 d6 \
| "Am"A2c2c2 c3BBA | "Em"G2B2B2 B3Bdc 
|1 "Em"B3AAG "D7"d3cdc | "Em"B12 \
:|2 "Em"B3cAB "B7"G3AFG | "Em"E3BGB E6 \
P:C
|: "D7"D3EFG A3BcA | "G"c2B4- B6 
| "D7"A3GGF d3cdc | "G"B12 \
| "D7"D3EFG A3BcA | "C"B2c4- c6 \
| "Em"B3cAB "B7"G3AFG |1 "Em"E3BGB E6 :|2 "Em"E3eBG E6 |]



